X:1

T:Whirligig

T:Woodicock

L:1/8

M:6/8

S:Sharp – Country Dance Tunes  (1909)

Z:AK/Fiddler’s Companion

K:D Minor

z| d2d f>ed|c2A c2c|d2d f>ed|cAA A2A|d2d f>ed |c2A c2c |

d2d f>ed|cAA A2|:d |c2B c>BA|BGG G2G|AAA A>Bc |

dDD D2d|c2B c>BA|BGG G2G|AAA A>Bc|dDD D2 |:

 

WHIRLIGIG’S LAST BOW, THE.  AKA – “Whiligig’s Maggot.” English, Country Dance Tune (2/4 time). D Dorian. Standard tuning. AAB. Composed by collector, researcher, teacher, musician and composer Pat Shaw in 1973. Barnes (English Country Dance Tunes, vol. 2), 2005; pg. 142.

 

WHISH, THE. English, Country Dance Tune (6/8 time). G Major. Standard tuning. AA (x11). The tune dates to 1650. Barnes (English Country Dance Tunes), 1986. Sharp (Country Dance Tunes), 1909/1994; pg. 66.

